app/assets/img/work/ttl-jci-pc.svg

<svg fill="none" height="25" viewBox="0 0 196 25" width="196" xmlns="http://www.w3.org/2000/svg"><path d="m14.536 15.136v8.864h-5.408v-8.864l-8.448-14.448h4.768c.46933 0 .84267.111999 1.12.336.27733.21333.50133.49067.672.832l3.296 6.784c.2667.544.512 1.04533.736 1.504.224.4587.4213.912.592 1.36.16-.4587.352-.9173.576-1.376.224-.45867.464-.95467.72-1.488l3.264-6.784c.064-.13867.1493-.27733.256-.416.1173-.13867.2453-.26133.384-.368.1493-.117335.3147-.208002.496-.272001.192-.074666.4-.111999.624-.111999h4.8zm15.1897-7.984c1.2587 0 2.4054.19733 3.4401.592 1.0346.39467 1.92.96 2.656 1.696.7466.736 1.3226 1.632 1.728 2.688.416 1.0453.6239 2.224.6239 3.536 0 1.3227-.2079 2.5173-.6239 3.584-.4054 1.056-.9814 1.9573-1.728 2.704-.736.736-1.6214 1.3067-2.656 1.712-1.0347.3947-2.1814.592-3.4401.592-1.2693 0-2.4266-.1973-3.472-.592-1.0346-.4053-1.9306-.976-2.688-1.712-.7466-.7467-1.328-1.648-1.744-2.704-.4053-1.0667-.608-2.2613-.608-3.584 0-1.312.2027-2.4907.608-3.536.416-1.056.9974-1.952 1.744-2.688.7574-.736 1.6534-1.30133 2.688-1.696 1.0454-.39467 2.2027-.592 3.472-.592zm0 13.424c1.1414 0 1.9787-.4 2.5121-1.2.544-.8107.816-2.0373.816-3.68s-.272-2.864-.816-3.664c-.5334-.8-1.3707-1.2-2.5121-1.2-1.1733 0-2.0319.4-2.5759 1.2-.5441.8-.8161 2.0213-.8161 3.664s.272 2.8693.8161 3.68c.544.8 1.4026 1.2 2.5759 1.2zm16.4505-20.5280016v13.4240016h.736c.3094 0 .544-.0427.7041-.128.1706-.0853.3306-.24.4799-.464l3.1361-4.672c.1813-.27733.3946-.48.6399-.608.2561-.128.5761-.192.96-.192h4.544l-4.2879 5.904c-.2027.2773-.4267.5227-.672.736-.2347.2133-.4907.4053-.7681.576.48.3627.896.8427 1.248 1.44l4.6721 7.936h-4.48c-.3734 0-.6987-.0587-.976-.176-.2667-.128-.4854-.3467-.656-.656l-3.1361-5.872c-.1493-.2667-.304-.4373-.464-.512-.16-.0853-.4-.128-.72-.128h-.96v7.344h-4.96v-23.9520016zm20.2208 7.1040016c1.2587 0 2.4053.19733 3.44.592s1.92.96 2.656 1.696c.7467.736 1.3227 1.632 1.728 2.688.416 1.0453.624 2.224.624 3.536 0 1.3227-.208 2.5173-.624 3.584-.4053 1.056-.9813 1.9573-1.728 2.704-.736.736-1.6213 1.3067-2.656 1.712-1.0347.3947-2.1813.592-3.44.592-1.2693 0-2.4267-.1973-3.472-.592-1.0347-.4053-1.9307-.976-2.688-1.712-.7467-.7467-1.328-1.648-1.744-2.704-.4053-1.0667-.608-2.2613-.608-3.584 0-1.312.2027-2.4907.608-3.536.416-1.056.9973-1.952 1.744-2.688.7573-.736 1.6533-1.30133 2.688-1.696 1.0453-.39467 2.2027-.592 3.472-.592zm0 13.424c1.1413 0 1.9787-.4 2.512-1.2.544-.8107.816-2.0373.816-3.68s-.272-2.864-.816-3.664c-.5333-.8-1.3707-1.2-2.512-1.2-1.1733 0-2.032.4-2.576 1.2s-.816 2.0213-.816 3.664.272 2.8693.816 3.68c.544.8 1.4027 1.2 2.576 1.2zm21.6345-9.536c-.128.2027-.2667.3467-.416.432-.1387.0853-.32.128-.544.128-.2347 0-.4693-.048-.704-.144-.2347-.1067-.4907-.2187-.768-.336-.2667-.1173-.5707-.224-.912-.32-.3413-.1067-.7307-.16-1.168-.16-.6293 0-1.1147.1227-1.456.368-.3307.2347-.496.5653-.496.992 0 .3093.1067.5653.32.768.224.2027.5173.384.88.544.3627.1493.7733.2933 1.232.432s.928.2933 1.408.464.9493.3733 1.408.608c.4587.224.8693.5067 1.232.848.3627.3307.6507.736.864 1.216.224.48.336 1.056.336 1.728 0 .8213-.1493 1.5787-.448 2.272s-.7467 1.2907-1.344 1.792c-.5867.5013-1.3173.8907-2.192 1.168-.864.2773-1.8613.416-2.992.416-.5653 0-1.1307-.0533-1.696-.16s-1.1147-.2507-1.648-.432c-.5227-.1813-1.008-.3947-1.456-.64-.448-.256-.832-.528-1.152-.816l1.152-1.824c.1387-.2133.304-.3787.496-.496.192-.128.4427-.192.752-.192.288 0 .544.064.768.192.2347.128.4853.2667.752.416s.576.288.928.416c.3627.128.816.192 1.36.192.384 0 .7093-.0373.976-.112.2667-.0853.48-.1973.64-.336s.2773-.2933.352-.464.112-.3467.112-.528c0-.3307-.112-.6027-.336-.816s-.5173-.3947-.88-.544c-.3627-.16-.7787-.304-1.248-.432-.4587-.1387-.928-.2933-1.408-.464s-.9547-.3733-1.424-.608c-.4587-.2453-.8693-.5493-1.232-.912-.3627-.3733-.656-.8267-.88-1.36s-.336-1.1787-.336-1.936c0-.704.1333-1.3707.4-2 .2773-.64.688-1.2 1.232-1.68s1.2267-.85867 2.048-1.136c.8213-.288 1.7813-.432 2.88-.432.5973 0 1.1733.05333 1.728.16.5653.10667 1.0933.256 1.584.448s.9387.42133 1.344.688c.4053.256.7627.53867 1.072.848zm8.9097-3.632v10.528c0 .8213.1867 1.456.56 1.904.3734.448.9227.672 1.648.672.544 0 1.0508-.112 1.5198-.336.48-.224.944-.5387 1.392-.944v-11.824h4.96v16.592h-3.072c-.618 0-1.024-.2773-1.216-.832l-.304-.96c-.32.3093-.65.592-.992.848-.341.2453-.709.4587-1.104.64-.3838.1707-.7998.304-1.2478.4-.448.1067-.9386.16-1.472.16-.9066 0-1.712-.1547-2.416-.464-.6933-.32-1.28-.7627-1.76-1.328s-.8426-1.232-1.088-2c-.2453-.768-.368-1.6107-.368-2.528v-10.528zm19.2028-7.3600016v13.4240016h.736c.309 0 .544-.0427.704-.128.17-.0853.33-.24.48-.464l3.136-4.672c.181-.27733.394-.48.64-.608.256-.128.576-.192.96-.192h4.544l-4.288 5.904c-.203.2773-.427.5227-.672.736-.235.2133-.491.4053-.768.576.48.3627.896.8427 1.248 1.44l4.672 7.936h-4.48c-.374 0-.699-.0587-.976-.176-.267-.128-.486-.3467-.656-.656l-3.136-5.872c-.15-.2667-.304-.4373-.464-.512-.16-.0853-.4-.128-.72-.128h-.96v7.344h-4.96v-23.9520016zm25.253 23.9520016c-.469 0-.826-.064-1.072-.192-.234-.128-.432-.3947-.592-.8l-.352-.912c-.416.352-.816.6613-1.2.928s-.784.496-1.2.688c-.405.1813-.842.3147-1.312.4-.458.096-.97.144-1.536.144-.757 0-1.445-.096-2.064-.288-.618-.2027-1.146-.496-1.584-.88-.426-.384-.757-.8587-.992-1.424-.234-.576-.352-1.2373-.352-1.984 0-.5867.15-1.1893.448-1.808.299-.6187.816-1.1787 1.552-1.68.736-.512 1.728-.9387 2.976-1.28s2.822-.5333 4.72-.576v-.704c0-.9707-.202-1.6693-.608-2.096-.394-.4373-.96-.656-1.696-.656-.586 0-1.066.064-1.44.192-.373.128-.709.272-1.008.432-.288.16-.57.304-.848.432-.277.128-.608.192-.992.192-.341 0-.634-.08-.88-.24-.234-.1707-.421-.3787-.56-.624l-.896-1.552c1.003-.88533 2.112-1.54133 3.328-1.968 1.227-.43733 2.539-.656 3.936-.656 1.003 0 1.904.16533 2.704.496.811.32 1.494.77333 2.048 1.36.566.576.998 1.264 1.296 2.064.299.8.448 1.6747.448 2.624v10.368zm-5.696-3.024c.64 0 1.2-.112 1.68-.336s.966-.5867 1.456-1.088v-2.304c-.992.0427-1.808.128-2.448.256s-1.146.288-1.52.48c-.373.192-.634.4107-.784.656-.138.2453-.208.512-.208.8 0 .5653.155.9653.464 1.2.31.224.763.336 1.36.336zm28.238-5.424c0 1.3013-.166 2.4853-.496 3.552-.32 1.0667-.811 1.984-1.472 2.752-.651.7573-1.472 1.3493-2.464 1.776-.992.416-2.16.624-3.504.624-.608 0-1.211-.032-1.808-.096-.587-.064-1.2-.1707-1.84-.32l.288-3.152c.021-.2773.128-.5013.32-.672.202-.1707.48-.256.832-.256.181 0 .405.032.672.096.266.0533.586.08.96.08.522 0 .976-.0693 1.36-.208.394-.1493.72-.3893.976-.72.256-.3413.448-.784.576-1.328s.192-1.216.192-2.016v-14.976h5.408zm19.814 2.416c.128 0 .256.0267.384.08.128.0427.25.1227.368.24l2.144 2.256c-.939 1.2267-2.118 2.1547-3.536 2.784-1.408.6187-3.078.928-5.008.928-1.771 0-3.36-.2987-4.768-.896-1.398-.608-2.587-1.44-3.568-2.496-.971-1.0667-1.718-2.3253-2.24-3.776-.523-1.4613-.784-3.0453-.784-4.752 0-1.7387.298-3.33333.896-4.784.597-1.46133 1.429-2.72 2.496-3.776 1.077-1.056 2.362-1.87733 3.856-2.464 1.493-.586668 3.141-.880001 4.944-.880001.874 0 1.696.08 2.464.24.778.149333 1.504.362661 2.176.640001.672.26667 1.29.592 1.856.976.565.37333 1.066.78933 1.504 1.248l-1.824 2.448c-.118.14933-.256.288-.416.416-.16.11733-.384.176-.672.176-.192 0-.374-.04267-.544-.128-.171-.08533-.352-.18667-.544-.304-.192-.128-.406-.26133-.64-.4-.224-.14933-.496-.28267-.816-.4-.31-.128-.678-.23467-1.104-.32-.416-.08533-.907-.128-1.472-.128-.982 0-1.878.176-2.688.528-.811.34133-1.51.83733-2.096 1.488-.576.64-1.03 1.41867-1.36 2.336-.32.9173-.48 1.9467-.48 3.088 0 1.1947.16 2.256.48 3.184.33.928.773 1.712 1.328 2.352.565.6293 1.221 1.1093 1.968 1.44.746.3307 1.546.496 2.4.496.49 0 .938-.0213 1.344-.064.405-.0533.778-.1387 1.12-.256.352-.1173.682-.2667.992-.448.32-.192.64-.4267.96-.704.128-.1067.266-.192.416-.256.149-.0747.304-.112.464-.112zm11.607 6.032h-5.44v-23.312h5.44z" fill="#121111"/></svg>

<svg width="196" height="25" viewBox="0 0 196 25" fill="none" xmlns="http://www.w3.org/2000/svg">
<path d="M14.536 15.136V24H9.128V15.136L0.68 0.688H5.448C5.91733 0.688 6.29067 0.799999 6.568 1.024C6.84533 1.23733 7.06933 1.51467 7.24 1.856L10.536 8.64C10.8027 9.184 11.048 9.68533 11.272 10.144C11.496 10.6027 11.6933 11.056 11.864 11.504C12.024 11.0453 12.216 10.5867 12.44 10.128C12.664 9.66933 12.904 9.17333 13.16 8.64L16.424 1.856C16.488 1.71733 16.5733 1.57867 16.68 1.44C16.7973 1.30133 16.9253 1.17867 17.064 1.072C17.2133 0.954665 17.3787 0.863998 17.56 0.799999C17.752 0.725333 17.96 0.688 18.184 0.688H22.984L14.536 15.136ZM29.7257 7.152C30.9844 7.152 32.1311 7.34933 33.1658 7.744C34.2004 8.13867 35.0858 8.704 35.8218 9.44C36.5684 10.176 37.1444 11.072 37.5498 12.128C37.9658 13.1733 38.1737 14.352 38.1737 15.664C38.1737 16.9867 37.9658 18.1813 37.5498 19.248C37.1444 20.304 36.5684 21.2053 35.8218 21.952C35.0858 22.688 34.2004 23.2587 33.1658 23.664C32.1311 24.0587 30.9844 24.256 29.7257 24.256C28.4564 24.256 27.2991 24.0587 26.2537 23.664C25.2191 23.2587 24.3231 22.688 23.5657 21.952C22.8191 21.2053 22.2377 20.304 21.8217 19.248C21.4164 18.1813 21.2137 16.9867 21.2137 15.664C21.2137 14.352 21.4164 13.1733 21.8217 12.128C22.2377 11.072 22.8191 10.176 23.5657 9.44C24.3231 8.704 25.2191 8.13867 26.2537 7.744C27.2991 7.34933 28.4564 7.152 29.7257 7.152ZM29.7257 20.576C30.8671 20.576 31.7044 20.176 32.2378 19.376C32.7818 18.5653 33.0538 17.3387 33.0538 15.696C33.0538 14.0533 32.7818 12.832 32.2378 12.032C31.7044 11.232 30.8671 10.832 29.7257 10.832C28.5524 10.832 27.6938 11.232 27.1498 12.032C26.6057 12.832 26.3337 14.0533 26.3337 15.696C26.3337 17.3387 26.6057 18.5653 27.1498 19.376C27.6938 20.176 28.5524 20.576 29.7257 20.576ZM46.1762 0.0479984V13.472H46.9122C47.2216 13.472 47.4562 13.4293 47.6163 13.344C47.7869 13.2587 47.9469 13.104 48.0962 12.88L51.2323 8.208C51.4136 7.93067 51.6269 7.728 51.8722 7.6C52.1283 7.472 52.4483 7.408 52.8322 7.408H57.3762L53.0883 13.312C52.8856 13.5893 52.6616 13.8347 52.4163 14.048C52.1816 14.2613 51.9256 14.4533 51.6482 14.624C52.1282 14.9867 52.5442 15.4667 52.8962 16.064L57.5683 24H53.0883C52.7149 24 52.3896 23.9413 52.1123 23.824C51.8456 23.696 51.6269 23.4773 51.4563 23.168L48.3202 17.296C48.1709 17.0293 48.0162 16.8587 47.8562 16.784C47.6962 16.6987 47.4562 16.656 47.1362 16.656H46.1762V24H41.2162V0.0479984H46.1762ZM66.397 7.152C67.6557 7.152 68.8023 7.34933 69.837 7.744C70.8717 8.13867 71.757 8.704 72.493 9.44C73.2397 10.176 73.8157 11.072 74.221 12.128C74.637 13.1733 74.845 14.352 74.845 15.664C74.845 16.9867 74.637 18.1813 74.221 19.248C73.8157 20.304 73.2397 21.2053 72.493 21.952C71.757 22.688 70.8717 23.2587 69.837 23.664C68.8023 24.0587 67.6557 24.256 66.397 24.256C65.1277 24.256 63.9703 24.0587 62.925 23.664C61.8903 23.2587 60.9943 22.688 60.237 21.952C59.4903 21.2053 58.909 20.304 58.493 19.248C58.0877 18.1813 57.885 16.9867 57.885 15.664C57.885 14.352 58.0877 13.1733 58.493 12.128C58.909 11.072 59.4903 10.176 60.237 9.44C60.9943 8.704 61.8903 8.13867 62.925 7.744C63.9703 7.34933 65.1277 7.152 66.397 7.152ZM66.397 20.576C67.5383 20.576 68.3757 20.176 68.909 19.376C69.453 18.5653 69.725 17.3387 69.725 15.696C69.725 14.0533 69.453 12.832 68.909 12.032C68.3757 11.232 67.5383 10.832 66.397 10.832C65.2237 10.832 64.365 11.232 63.821 12.032C63.277 12.832 63.005 14.0533 63.005 15.696C63.005 17.3387 63.277 18.5653 63.821 19.376C64.365 20.176 65.2237 20.576 66.397 20.576ZM88.0315 11.04C87.9035 11.2427 87.7648 11.3867 87.6155 11.472C87.4768 11.5573 87.2955 11.6 87.0715 11.6C86.8368 11.6 86.6022 11.552 86.3675 11.456C86.1328 11.3493 85.8768 11.2373 85.5995 11.12C85.3328 11.0027 85.0288 10.896 84.6875 10.8C84.3462 10.6933 83.9568 10.64 83.5195 10.64C82.8902 10.64 82.4048 10.7627 82.0635 11.008C81.7328 11.2427 81.5675 11.5733 81.5675 12C81.5675 12.3093 81.6742 12.5653 81.8875 12.768C82.1115 12.9707 82.4048 13.152 82.7675 13.312C83.1302 13.4613 83.5408 13.6053 83.9995 13.744C84.4582 13.8827 84.9275 14.0373 85.4075 14.208C85.8875 14.3787 86.3568 14.5813 86.8155 14.816C87.2742 15.04 87.6848 15.3227 88.0475 15.664C88.4102 15.9947 88.6982 16.4 88.9115 16.88C89.1355 17.36 89.2475 17.936 89.2475 18.608C89.2475 19.4293 89.0982 20.1867 88.7995 20.88C88.5008 21.5733 88.0528 22.1707 87.4555 22.672C86.8688 23.1733 86.1382 23.5627 85.2635 23.84C84.3995 24.1173 83.4022 24.256 82.2715 24.256C81.7062 24.256 81.1408 24.2027 80.5755 24.096C80.0102 23.9893 79.4608 23.8453 78.9275 23.664C78.4048 23.4827 77.9195 23.2693 77.4715 23.024C77.0235 22.768 76.6395 22.496 76.3195 22.208L77.4715 20.384C77.6102 20.1707 77.7755 20.0053 77.9675 19.888C78.1595 19.76 78.4102 19.696 78.7195 19.696C79.0075 19.696 79.2635 19.76 79.4875 19.888C79.7222 20.016 79.9728 20.1547 80.2395 20.304C80.5062 20.4533 80.8155 20.592 81.1675 20.72C81.5302 20.848 81.9835 20.912 82.5275 20.912C82.9115 20.912 83.2368 20.8747 83.5035 20.8C83.7702 20.7147 83.9835 20.6027 84.1435 20.464C84.3035 20.3253 84.4208 20.1707 84.4955 20C84.5702 19.8293 84.6075 19.6533 84.6075 19.472C84.6075 19.1413 84.4955 18.8693 84.2715 18.656C84.0475 18.4427 83.7542 18.2613 83.3915 18.112C83.0288 17.952 82.6128 17.808 82.1435 17.68C81.6848 17.5413 81.2155 17.3867 80.7355 17.216C80.2555 17.0453 79.7808 16.8427 79.3115 16.608C78.8528 16.3627 78.4422 16.0587 78.0795 15.696C77.7168 15.3227 77.4235 14.8693 77.1995 14.336C76.9755 13.8027 76.8635 13.1573 76.8635 12.4C76.8635 11.696 76.9968 11.0293 77.2635 10.4C77.5408 9.76 77.9515 9.2 78.4955 8.72C79.0395 8.24 79.7222 7.86133 80.5435 7.584C81.3648 7.296 82.3248 7.152 83.4235 7.152C84.0208 7.152 84.5968 7.20533 85.1515 7.312C85.7168 7.41867 86.2448 7.568 86.7355 7.76C87.2262 7.952 87.6742 8.18133 88.0795 8.448C88.4848 8.704 88.8422 8.98667 89.1515 9.296L88.0315 11.04ZM96.9412 7.408V17.936C96.9412 18.7573 97.1279 19.392 97.5012 19.84C97.8746 20.288 98.4239 20.512 99.1492 20.512C99.6932 20.512 100.2 20.4 100.669 20.176C101.149 19.952 101.613 19.6373 102.061 19.232V7.408H107.021V24H103.949C103.331 24 102.925 23.7227 102.733 23.168L102.429 22.208C102.109 22.5173 101.779 22.8 101.437 23.056C101.096 23.3013 100.728 23.5147 100.333 23.696C99.9492 23.8667 99.5332 24 99.0852 24.096C98.6372 24.2027 98.1466 24.256 97.6132 24.256C96.7066 24.256 95.9012 24.1013 95.1972 23.792C94.5039 23.472 93.9172 23.0293 93.4372 22.464C92.9572 21.8987 92.5946 21.232 92.3492 20.464C92.1039 19.696 91.9812 18.8533 91.9812 17.936V7.408H96.9412ZM116.144 0.0479984V13.472H116.88C117.189 13.472 117.424 13.4293 117.584 13.344C117.754 13.2587 117.914 13.104 118.064 12.88L121.2 8.208C121.381 7.93067 121.594 7.728 121.84 7.6C122.096 7.472 122.416 7.408 122.8 7.408H127.344L123.056 13.312C122.853 13.5893 122.629 13.8347 122.384 14.048C122.149 14.2613 121.893 14.4533 121.616 14.624C122.096 14.9867 122.512 15.4667 122.864 16.064L127.536 24H123.056C122.682 24 122.357 23.9413 122.08 23.824C121.813 23.696 121.594 23.4773 121.424 23.168L118.288 17.296C118.138 17.0293 117.984 16.8587 117.824 16.784C117.664 16.6987 117.424 16.656 117.104 16.656H116.144V24H111.184V0.0479984H116.144ZM141.397 24C140.928 24 140.571 23.936 140.325 23.808C140.091 23.68 139.893 23.4133 139.733 23.008L139.381 22.096C138.965 22.448 138.565 22.7573 138.181 23.024C137.797 23.2907 137.397 23.52 136.981 23.712C136.576 23.8933 136.139 24.0267 135.669 24.112C135.211 24.208 134.699 24.256 134.133 24.256C133.376 24.256 132.688 24.16 132.069 23.968C131.451 23.7653 130.923 23.472 130.485 23.088C130.059 22.704 129.728 22.2293 129.493 21.664C129.259 21.088 129.141 20.4267 129.141 19.68C129.141 19.0933 129.291 18.4907 129.589 17.872C129.888 17.2533 130.405 16.6933 131.141 16.192C131.877 15.68 132.869 15.2533 134.117 14.912C135.365 14.5707 136.939 14.3787 138.837 14.336V13.632C138.837 12.6613 138.635 11.9627 138.229 11.536C137.835 11.0987 137.269 10.88 136.533 10.88C135.947 10.88 135.467 10.944 135.093 11.072C134.72 11.2 134.384 11.344 134.085 11.504C133.797 11.664 133.515 11.808 133.237 11.936C132.96 12.064 132.629 12.128 132.245 12.128C131.904 12.128 131.611 12.048 131.365 11.888C131.131 11.7173 130.944 11.5093 130.805 11.264L129.909 9.712C130.912 8.82667 132.021 8.17067 133.237 7.744C134.464 7.30667 135.776 7.088 137.173 7.088C138.176 7.088 139.077 7.25333 139.877 7.584C140.688 7.904 141.371 8.35733 141.925 8.944C142.491 9.52 142.923 10.208 143.221 11.008C143.52 11.808 143.669 12.6827 143.669 13.632V24H141.397ZM135.701 20.976C136.341 20.976 136.901 20.864 137.381 20.64C137.861 20.416 138.347 20.0533 138.837 19.552V17.248C137.845 17.2907 137.029 17.376 136.389 17.504C135.749 17.632 135.243 17.792 134.869 17.984C134.496 18.176 134.235 18.3947 134.085 18.64C133.947 18.8853 133.877 19.152 133.877 19.44C133.877 20.0053 134.032 20.4053 134.341 20.64C134.651 20.864 135.104 20.976 135.701 20.976ZM163.939 15.552C163.939 16.8533 163.773 18.0373 163.443 19.104C163.123 20.1707 162.632 21.088 161.971 21.856C161.32 22.6133 160.499 23.2053 159.507 23.632C158.515 24.048 157.347 24.256 156.003 24.256C155.395 24.256 154.792 24.224 154.195 24.16C153.608 24.096 152.995 23.9893 152.355 23.84L152.643 20.688C152.664 20.4107 152.771 20.1867 152.963 20.016C153.165 19.8453 153.443 19.76 153.795 19.76C153.976 19.76 154.2 19.792 154.467 19.856C154.733 19.9093 155.053 19.936 155.427 19.936C155.949 19.936 156.403 19.8667 156.787 19.728C157.181 19.5787 157.507 19.3387 157.763 19.008C158.019 18.6667 158.211 18.224 158.339 17.68C158.467 17.136 158.531 16.464 158.531 15.664V0.688H163.939V15.552ZM183.753 17.968C183.881 17.968 184.009 17.9947 184.137 18.048C184.265 18.0907 184.387 18.1707 184.505 18.288L186.649 20.544C185.71 21.7707 184.531 22.6987 183.113 23.328C181.705 23.9467 180.035 24.256 178.105 24.256C176.334 24.256 174.745 23.9573 173.337 23.36C171.939 22.752 170.75 21.92 169.769 20.864C168.798 19.7973 168.051 18.5387 167.529 17.088C167.006 15.6267 166.745 14.0427 166.745 12.336C166.745 10.5973 167.043 9.00267 167.641 7.552C168.238 6.09067 169.07 4.832 170.137 3.776C171.214 2.72 172.499 1.89867 173.993 1.312C175.486 0.725332 177.134 0.431999 178.937 0.431999C179.811 0.431999 180.633 0.511999 181.401 0.671999C182.179 0.821332 182.905 1.03466 183.577 1.312C184.249 1.57867 184.867 1.904 185.433 2.288C185.998 2.66133 186.499 3.07733 186.937 3.536L185.113 5.984C184.995 6.13333 184.857 6.272 184.697 6.4C184.537 6.51733 184.313 6.576 184.025 6.576C183.833 6.576 183.651 6.53333 183.481 6.448C183.31 6.36267 183.129 6.26133 182.937 6.144C182.745 6.016 182.531 5.88267 182.297 5.744C182.073 5.59467 181.801 5.46133 181.481 5.344C181.171 5.216 180.803 5.10933 180.377 5.024C179.961 4.93867 179.47 4.896 178.905 4.896C177.923 4.896 177.027 5.072 176.217 5.424C175.406 5.76533 174.707 6.26133 174.121 6.912C173.545 7.552 173.091 8.33067 172.761 9.248C172.441 10.1653 172.281 11.1947 172.281 12.336C172.281 13.5307 172.441 14.592 172.761 15.52C173.091 16.448 173.534 17.232 174.089 17.872C174.654 18.5013 175.31 18.9813 176.057 19.312C176.803 19.6427 177.603 19.808 178.457 19.808C178.947 19.808 179.395 19.7867 179.801 19.744C180.206 19.6907 180.579 19.6053 180.921 19.488C181.273 19.3707 181.603 19.2213 181.913 19.04C182.233 18.848 182.553 18.6133 182.873 18.336C183.001 18.2293 183.139 18.144 183.289 18.08C183.438 18.0053 183.593 17.968 183.753 17.968ZM195.36 24H189.92V0.688H195.36V24Z" fill="#121111"/>
</svg>
